svg/emoji_u1f9e5.svg

<?xml version="1.0" encoding="UTF-8" standalone="no"?>
<svg
   width="128"
   height="128"
   version="1.1"
   id="svg108531"
   sodipodi:docname="emoji_u1f9e5.svg"
   inkscape:version="1.2.2 (732a01da63, 2022-12-09)"
   xml:space="preserve"
   xmlns:inkscape="http://www.inkscape.org/namespaces/inkscape"
   xmlns:sodipodi="http://sodipodi.sourceforge.net/DTD/sodipodi-0.dtd"
   xmlns="http://www.w3.org/2000/svg"
   xmlns:svg="http://www.w3.org/2000/svg"><defs
     id="defs108535"><linearGradient
       id="linearGradient109437"
       gradientUnits="userSpaceOnUse"
       x1="63.863998"
       x2="63.863998"
       y1="101.684"
       y2="-10.232"><stop
         offset=".555"
         stop-color="#3949ab"
         id="stop108458-1" /></linearGradient></defs><sodipodi:namedview
     id="namedview108533"
     pagecolor="#ffffff"
     bordercolor="#000000"
     borderopacity="0.25"
     inkscape:showpageshadow="2"
     inkscape:pageopacity="0.0"
     inkscape:pagecheckerboard="0"
     inkscape:deskcolor="#d1d1d1"
     showgrid="false"
     inkscape:zoom="4.2421875"
     inkscape:cx="48.559853"
     inkscape:cy="62.467772"
     inkscape:window-width="1366"
     inkscape:window-height="697"
     inkscape:window-x="-8"
     inkscape:window-y="-8"
     inkscape:window-maximized="1"
     inkscape:current-layer="svg108531" /><linearGradient
     id="a"
     gradientUnits="userSpaceOnUse"
     x1="98.056"
     x2="98.056"
     y1="34.739"
     y2="106.717"><stop
       offset=".327"
       stop-color="#1a237e"
       id="stop108446" /></linearGradient><path
     d="M114.92 103.94l-9.45 2.77c-1.91.61-3.91-.5-4.31-2.4-1.24-5.92-3.81-18.55-6.17-32.28-2.75-16.01-9.97-39.51-15.78-48.07-1.11-1.64.22-3.92 2.19-4.49l7.69-2.22c3.04-.88 7.22 1.6 8.35 4.44l9.73 26.09c3.1 7.83 4.22 16 5.31 24.35l4.79 28.23c.21 1.57-.78 3.08-2.35 3.58z"
     fill="url(#a)"
     id="path108449"
     style="fill:#40c0e7;fill-opacity:1" /><linearGradient
     id="b"
     gradientUnits="userSpaceOnUse"
     x1="29.944"
     x2="29.944"
     y1="30.729"
     y2="108.252"><stop
       offset=".327"
       stop-color="#1a237e"
       id="stop108451" /></linearGradient><path
     d="M13.08 103.94l9.45 2.77c1.91.61 3.91-.5 4.31-2.4 1.24-5.92 3.81-18.55 6.17-32.28 2.75-16.01 9.97-39.51 15.78-48.07 1.11-1.64-.22-3.92-2.19-4.49l-7.69-2.22c-3.04-.88-7.22 1.6-8.35 4.44l-9.73 26.09c-3.1 7.83-4.22 16-5.31 24.35l-4.79 28.23c-.21 1.57.78 3.08 2.35 3.58z"
     fill="url(#b)"
     id="path108454"
     style="fill:#40c0e7;fill-opacity:1" /><path
     id="path121677"
     style="fill:#2f2f2f;fill-opacity:1;stroke-width:1"
     d="M 37.724609 17.072266 C 34.872525 16.99625 31.549295 19.204459 30.560547 21.689453 L 26.179688 33.435547 L 30.509766 56.859375 C 31.5832 62.68558 32.293232 68.569452 32.578125 74.451172 C 32.722151 73.629514 32.866936 72.860248 33.009766 72.029297 C 35.75976 56.019329 42.979074 32.52092 48.789062 23.960938 C 49.89906 22.32094 48.569605 20.040703 46.599609 19.470703 L 38.910156 17.25 C 38.530158 17.14 38.13205 17.083125 37.724609 17.072266 z M 90.275391 17.072266 C 89.86795 17.083125 89.469842 17.14 89.089844 17.25 L 81.400391 19.470703 C 79.430395 20.040703 78.10094 22.32094 79.210938 23.960938 C 85.020926 32.52092 92.24024 56.019329 94.990234 72.029297 C 95.064996 72.464244 95.141663 72.864311 95.216797 73.296875 C 95.535374 67.799791 96.214189 62.304454 97.220703 56.859375 L 101.64062 32.953125 L 97.439453 21.689453 C 96.450705 19.204459 93.127475 16.99625 90.275391 17.072266 z " /><linearGradient
     id="c"
     gradientUnits="userSpaceOnUse"
     x1="63.864"
     x2="63.864"
     y1="101.684"
     y2="-10.232"><stop
       offset=".555"
       stop-color="#3949ab"
       id="stop108458" /></linearGradient><path
     d="M95.63 119.23l-8.42 2.01a100.375 100.375 0 0 1-46.69 0l-8.42-2.01a3.98 3.98 0 0 1-2.86-5.13l2.23-6.69C36.77 91.5 36.95 74.5 33.91 58l-5.14-27.81c-1.09-5.9 2.38-11.69 8.1-13.54 18.85-6.09 35.14-6.09 53.99 0 5.73 1.85 9.19 7.64 8.1 13.54L93.82 58c-3.05 16.5-2.86 33.5 2.44 49.42l2.23 6.69a3.97 3.97 0 0 1-2.86 5.12z"
     fill="url(#c)"
     id="path108461"
     style="fill:#40c0e7;fill-opacity:1" /><path
     d="M57.18 16c-.44-3.02 10.39-12 10.39-12h-9.88c-1.34 0-2.63.44-3.69 1.25-1.77 1.36-4.67 3.63-7.26 5.82-3.77 3.2-7.24 7.82-9.2 10.66-.7 1.02.09 2.39 1.32 2.3l10.34-.78-5.46 4.98c-.97.89-.84 2.45.26 3.16 6 3.84 12.84 8.64 19.82 12.12 1.66-1.19 2.31-1.49 3.97-2.64-4.56-5.82-9.03-14.02-10.61-24.87z"
     fill="#283593"
     id="path108465"
     style="fill:#006ca2;fill-opacity:1" /><g
     fill="#1a237e"
     id="g108471"
     style="fill:#006ca2;fill-opacity:1"><circle
       cx="58.89"
       cy="63.51"
       r="3"
       id="circle108467"
       style="fill:#006ca2;fill-opacity:1" /><circle
       cx="74.89"
       cy="63.51"
       r="3"
       id="circle108469"
       style="fill:#006ca2;fill-opacity:1" /></g><g
     fill="#1a237e"
     id="g108485"
     style="fill:#006ca2;fill-opacity:1"><circle
       cx="58.89"
       cy="84.51"
       r="3"
       id="circle108481"
       style="fill:#006ca2;fill-opacity:1" /><circle
       cx="74.89"
       cy="84.51"
       r="3"
       id="circle108483"
       style="fill:#006ca2;fill-opacity:1" /></g><g
     fill="#1a237e"
     id="g108501"
     style="fill:#006ca2;fill-opacity:1"><circle
       cx="58.889999"
       cy="105.51"
       r="3"
       id="circle108497"
       style="fill:#006ca2;fill-opacity:1" /><circle
       cx="74.889999"
       cy="105.51"
       r="3"
       id="circle108499"
       style="fill:#006ca2;fill-opacity:1" /></g><path
     style="fill:#ffc41e;fill-opacity:1"
     d="m 74.890625,100.50977 c -1.659998,0 -3,1.34 -3,3 0,1.65999 1.340002,3 3,3 1.659998,0 3,-1.34001 3,-3 0,-1.66 -1.340002,-3 -3,-3 z"
     id="path109402" /><path
     style="fill:#ffc41e;fill-opacity:1"
     d="m 58.890625,100.50977 c -1.659998,0 -3,1.34 -3,3 0,1.65999 1.340002,3 3,3 1.659998,0 3,-1.34001 3,-3 0,-1.66 -1.340002,-3 -3,-3 z"
     id="circle108503" /><path
     d="M70.19 16C70.63 12.98 59.8 4 59.8 4h9.88c1.33 0 2.63.44 3.69 1.25 1.77 1.36 4.67 3.63 7.26 5.82 3.77 3.2 7.24 7.82 9.2 10.66.7 1.02-.09 2.39-1.32 2.3l-10.34-.78 5.46 4.98c.97.89.76 2.33-.26 3.16-4.35 3.5-22.1 16.09-28.52 20.63a5.983 5.983 0 0 0-2.52 4.5l-.51 19.71c-.2 7.84-.71 15.67-1.53 23.48l-2.15 23.05-3.26-.57s1.31-8.15 2.33-23.31c.52-7.72.98-14.89 1.12-22.41l.41-21.7c.08-1.39.64-2.71 1.58-3.74 2.85-3.07 8.88-9.61 9.26-10.16 4.56-5.82 9.03-14.02 10.61-24.87z"
     fill="#283593"
     id="path108519"
     style="fill:#006ca2;fill-opacity:1" /><path
     d="M52.69 17.54C50.38 12.39 55.31 4 59.98 4h7.8c4.8 0 9.71 8.72 7.14 13.86l-9.67 18.36c-.76 1.45-2.86 1.42-3.57-.06l-8.99-18.62z"
     fill="#1a237e"
     id="path108525"
     style="fill:#2f2f2f;fill-opacity:1" /><path
     style="fill:#ffc41e;fill-opacity:1"
     d="m 74.890625,79.509766 c -1.659996,0 -3,1.340002 -3,3 0,1.659996 1.340004,3 3,3 1.659996,0 3,-1.340004 3,-3 0,-1.659998 -1.340004,-3 -3,-3 z"
     id="path128756" /><path
     style="fill:#ffc41e;fill-opacity:1"
     d="m 58.890625,79.509766 c -1.659996,0 -3,1.340002 -3,3 0,1.659996 1.340004,3 3,3 1.659996,0 3,-1.340004 3,-3 0,-1.659998 -1.340004,-3 -3,-3 z"
     id="path128754" /><path
     style="fill:#ffc41e;fill-opacity:1"
     d="m 74.890625,58.509766 c -1.659996,0 -3,1.340002 -3,3 0,1.659996 1.340004,3 3,3 1.659996,0 3,-1.340004 3,-3 0,-1.659998 -1.340004,-3 -3,-3 z"
     id="path128752" /><path
     style="fill:#ffc41e;fill-opacity:1"
     d="m 58.890625,58.509766 c -1.659996,0 -3,1.340002 -3,3 0,1.659996 1.340004,3 3,3 1.659996,0 3,-1.340004 3,-3 0,-1.659998 -1.340004,-3 -3,-3 z"
     id="circle108473" /></svg>

<?xml version="1.0" encoding="UTF-8" standalone="no"?>
<svg
   width="128"
   height="128"
   version="1.1"
   id="svg108531"
   sodipodi:docname="emoji_u1f9e5.svg"
   inkscape:version="1.2.2 (732a01da63, 2022-12-09)"
   xmlns:inkscape="http://www.inkscape.org/namespaces/inkscape"
   xmlns:sodipodi="http://sodipodi.sourceforge.net/DTD/sodipodi-0.dtd"
   xmlns="http://www.w3.org/2000/svg"
   xmlns:svg="http://www.w3.org/2000/svg">
  <defs
     id="defs108535">
    <linearGradient
       id="linearGradient109437"
       gradientUnits="userSpaceOnUse"
       x1="63.863998"
       x2="63.863998"
       y1="101.684"
       y2="-10.232">
      <stop
         offset=".555"
         stop-color="#3949ab"
         id="stop108458-1" />
    </linearGradient>
  </defs>
  <sodipodi:namedview
     id="namedview108533"
     pagecolor="#ffffff"
     bordercolor="#000000"
     borderopacity="0.25"
     inkscape:showpageshadow="2"
     inkscape:pageopacity="0.0"
     inkscape:pagecheckerboard="0"
     inkscape:deskcolor="#d1d1d1"
     showgrid="false"
     inkscape:zoom="4.2421875"
     inkscape:cx="43.963168"
     inkscape:cy="77.790055"
     inkscape:window-width="1366"
     inkscape:window-height="697"
     inkscape:window-x="-8"
     inkscape:window-y="-8"
     inkscape:window-maximized="1"
     inkscape:current-layer="svg108531" />
  <linearGradient
     id="a"
     gradientUnits="userSpaceOnUse"
     x1="98.056"
     x2="98.056"
     y1="34.739"
     y2="106.717">
    <stop
       offset=".327"
       stop-color="#1a237e"
       id="stop108446" />
  </linearGradient>
  <path
     d="M114.92 103.94l-9.45 2.77c-1.91.61-3.91-.5-4.31-2.4-1.24-5.92-3.81-18.55-6.17-32.28-2.75-16.01-9.97-39.51-15.78-48.07-1.11-1.64.22-3.92 2.19-4.49l7.69-2.22c3.04-.88 7.22 1.6 8.35 4.44l9.73 26.09c3.1 7.83 4.22 16 5.31 24.35l4.79 28.23c.21 1.57-.78 3.08-2.35 3.58z"
     fill="url(#a)"
     id="path108449" />
  <linearGradient
     id="b"
     gradientUnits="userSpaceOnUse"
     x1="29.944"
     x2="29.944"
     y1="30.729"
     y2="108.252">
    <stop
       offset=".327"
       stop-color="#1a237e"
       id="stop108451" />
  </linearGradient>
  <path
     d="M13.08 103.94l9.45 2.77c1.91.61 3.91-.5 4.31-2.4 1.24-5.92 3.81-18.55 6.17-32.28 2.75-16.01 9.97-39.51 15.78-48.07 1.11-1.64-.22-3.92-2.19-4.49l-7.69-2.22c-3.04-.88-7.22 1.6-8.35 4.44l-9.73 26.09c-3.1 7.83-4.22 16-5.31 24.35l-4.79 28.23c-.21 1.57.78 3.08 2.35 3.58z"
     fill="url(#b)"
     id="path108454" />
  <path
     d="M90.42 20.07c1.66 0 3.73 1.51 4.22 2.7l9.71 26.06c.01.02.01.04.02.06 3.04 7.67 4.1 15.78 5.13 23.63 0 .04.01.08.02.11l4.77 28.14c0 .11-.1.25-.27.31l-9.4 2.75c-.02.01-.05.01-.07.02-.05.02-.11.03-.16.03-.13 0-.28-.06-.3-.18-1.3-6.2-3.82-18.63-6.15-32.17-2.73-15.85-9.95-39.66-16.05-48.95.08-.09.2-.19.34-.23l7.68-2.22c.16-.04.33-.06.51-.06m0-3c-.46 0-.9.06-1.33.18l-7.68 2.22c-1.97.57-3.3 2.85-2.19 4.49 5.8 8.56 13.02 32.06 15.78 48.07 2.36 13.72 4.93 26.36 6.17 32.28.32 1.54 1.71 2.56 3.24 2.56.35 0 .71-.05 1.07-.17l9.45-2.77c1.56-.5 2.55-2.01 2.35-3.58l-4.79-28.23c-1.09-8.35-2.21-16.52-5.31-24.35l-9.73-26.09c-.97-2.44-4.21-4.61-7.03-4.61zM37.58 20.07c.19 0 .35.02.49.06l7.68 2.22c.14.04.26.14.34.23-6.1 9.29-13.33 33.1-16.05 48.95-2.32 13.54-4.84 25.97-6.14 32.17-.02.11-.17.18-.3.18-.05 0-.1-.01-.16-.03-.02-.01-.05-.01-.07-.02l-9.4-2.75c-.17-.06-.27-.2-.27-.31l4.77-28.14c.01-.04.01-.08.02-.11 1.03-7.85 2.09-15.97 5.13-23.63.01-.02.01-.04.02-.06l9.71-26.06c.5-1.2 2.57-2.7 4.23-2.7m0-3c-2.82 0-6.05 2.18-7.02 4.62l-9.73 26.09c-3.1 7.83-4.22 16-5.31 24.35l-4.79 28.23c-.21 1.57.78 3.08 2.35 3.58l9.45 2.77c.36.11.72.17 1.07.17 1.53 0 2.92-1.02 3.24-2.56 1.24-5.92 3.81-18.55 6.17-32.28 2.75-16.01 9.97-39.51 15.78-48.07 1.11-1.64-.22-3.92-2.19-4.49l-7.68-2.22c-.44-.14-.89-.19-1.34-.19z"
     fill="#424242"
     opacity=".2"
     id="path108456" />
  <linearGradient
     id="c"
     gradientUnits="userSpaceOnUse"
     x1="63.864"
     x2="63.864"
     y1="101.684"
     y2="-10.232">
    <stop
       offset=".555"
       stop-color="#3949ab"
       id="stop108458" />
  </linearGradient>
  <path
     d="M95.63 119.23l-8.42 2.01a100.375 100.375 0 0 1-46.69 0l-8.42-2.01a3.98 3.98 0 0 1-2.86-5.13l2.23-6.69C36.77 91.5 36.95 74.5 33.91 58l-5.14-27.81c-1.09-5.9 2.38-11.69 8.1-13.54 18.85-6.09 35.14-6.09 53.99 0 5.73 1.85 9.19 7.64 8.1 13.54L93.82 58c-3.05 16.5-2.86 33.5 2.44 49.42l2.23 6.69a3.97 3.97 0 0 1-2.86 5.12z"
     fill="url(#c)"
     id="path108461"
     style="fill:#3949ab;fill-opacity:1" />
  <path
     d="M57.18 16c-.44-3.02 10.39-12 10.39-12h-9.88c-1.34 0-2.63.44-3.69 1.25-1.77 1.36-4.67 3.63-7.26 5.82-3.77 3.2-7.24 7.82-9.2 10.66-.7 1.02.09 2.39 1.32 2.3l10.34-.78-5.46 4.98c-.97.89-.84 2.45.26 3.16 6 3.84 12.84 8.64 19.82 12.12 1.66-1.19 2.31-1.49 3.97-2.64-4.56-5.82-9.03-14.02-10.61-24.87z"
     fill="#283593"
     id="path108465" />
  <g
     fill="#1a237e"
     id="g108471">
    <circle
       cx="58.89"
       cy="63.51"
       r="3"
       id="circle108467" />
    <circle
       cx="74.89"
       cy="63.51"
       r="3"
       id="circle108469" />
  </g>
  <g
     fill="#1a237e"
     id="g108485">
    <circle
       cx="58.89"
       cy="84.51"
       r="3"
       id="circle108481" />
    <circle
       cx="74.89"
       cy="84.51"
       r="3"
       id="circle108483" />
  </g>
  <g
     fill="#1a237e"
     id="g108501">
    <circle
       cx="58.889999"
       cy="105.51"
       r="3"
       id="circle108497" />
    <circle
       cx="74.889999"
       cy="105.51"
       r="3"
       id="circle108499" />
  </g>
  <path
     style="fill:#ffc41e;fill-opacity:1"
     d="m 74.890625,100.50977 c -1.659998,0 -3,1.34 -3,3 0,1.65999 1.340002,3 3,3 1.659998,0 3,-1.34001 3,-3 0,-1.66 -1.340002,-3 -3,-3 z"
     id="path109402" />
  <path
     style="fill:#ffc41e;fill-opacity:1"
     d="m 58.890625,100.50977 c -1.659998,0 -3,1.34 -3,3 0,1.65999 1.340002,3 3,3 1.659998,0 3,-1.34001 3,-3 0,-1.66 -1.340002,-3 -3,-3 z"
     id="circle108503" />
  <path
     d="M70.19 16C70.63 12.98 59.8 4 59.8 4h9.88c1.33 0 2.63.44 3.69 1.25 1.77 1.36 4.67 3.63 7.26 5.82 3.77 3.2 7.24 7.82 9.2 10.66.7 1.02-.09 2.39-1.32 2.3l-10.34-.78 5.46 4.98c.97.89.76 2.33-.26 3.16-4.35 3.5-22.1 16.09-28.52 20.63a5.983 5.983 0 0 0-2.52 4.5l-.51 19.71c-.2 7.84-.71 15.67-1.53 23.48l-2.15 23.05-3.26-.57s1.31-8.15 2.33-23.31c.52-7.72.98-14.89 1.12-22.41l.41-21.7c.08-1.39.64-2.71 1.58-3.74 2.85-3.07 8.88-9.61 9.26-10.16 4.56-5.82 9.03-14.02 10.61-24.87z"
     fill="#283593"
     id="path108519" />
  <path
     d="M52.69 17.54C50.38 12.39 55.31 4 59.98 4h7.8c4.8 0 9.71 8.72 7.14 13.86l-9.67 18.36c-.76 1.45-2.86 1.42-3.57-.06l-8.99-18.62z"
     fill="#1a237e"
     id="path108525" />
  <path
     id="circle108473"
     d="M 58.890625 58.509766 C 57.230629 58.509766 55.890625 59.849768 55.890625 61.509766 C 55.890625 63.169762 57.230629 64.509766 58.890625 64.509766 C 60.550621 64.509766 61.890625 63.169762 61.890625 61.509766 C 61.890625 59.849768 60.550621 58.509766 58.890625 58.509766 z M 74.890625 58.509766 C 73.230629 58.509766 71.890625 59.849768 71.890625 61.509766 C 71.890625 63.169762 73.230629 64.509766 74.890625 64.509766 C 76.550621 64.509766 77.890625 63.169762 77.890625 61.509766 C 77.890625 59.849768 76.550621 58.509766 74.890625 58.509766 z M 58.890625 79.509766 C 57.230629 79.509766 55.890625 80.849768 55.890625 82.509766 C 55.890625 84.169762 57.230629 85.509766 58.890625 85.509766 C 60.550621 85.509766 61.890625 84.169762 61.890625 82.509766 C 61.890625 80.849768 60.550621 79.509766 58.890625 79.509766 z M 74.890625 79.509766 C 73.230629 79.509766 71.890625 80.849768 71.890625 82.509766 C 71.890625 84.169762 73.230629 85.509766 74.890625 85.509766 C 76.550621 85.509766 77.890625 84.169762 77.890625 82.509766 C 77.890625 80.849768 76.550621 79.509766 74.890625 79.509766 z "
     style="fill:#ffc41e;fill-opacity:1" />
</svg>
